!!! OTL: Berkowitz343
!!! Chapter: 1
!!! Section: III
!!! Page: 84
!!! Mode: 
!!! Encoder: DJB
**kern
*staff1
*I"Piano
=1-
*clefF4
*k[f#]
*G:
*M9/8
8BB/L
8C/
8BB/J
8D\L
8E\
8D\J
8G\L
8A\
8G\J
=2
8B\L
8A\
8G\J
8F#\L
8E\
8D\J
8C/L
8BB/
8AA/J
=3
8GG\L
8d\
8c\J
8B\L
8A\
8G\J
8G\L
8F#\
8G\J
=4
4.G#\
2.A\
=5
8D/L
8C#/
8D/J
8F#\L
8A\
8c\J
8B\L
8A\
8G\J
=6
!!linebreak:original
8BB/L
8AA#/
8BB/J
8D#\L
8F#\
8A\J
8G\L
8F#\
8E\J
=7
8D\L
8d\
8c\J
8B\L
8A\
8G\J
8F#\L
8E#\
8F#\J
=8
4.A\
2.G\
==
*-
